web/public/images/brand/diecut_mark.svg

<svg fill="none" height="1000" viewBox="0 0 929 1000" width="929" xmlns="http://www.w3.org/2000/svg"><g clip-rule="evenodd" fill-rule="evenodd"><path d="m410.901 34.4752c-35.733 17.9669-111.058 52.9466-151.864 80.8508-40.806 27.905-35.733 53.901-53.599 71.868s-71.465 62.884-107.1982 89.834c-35.7327 26.951-26.7995 98.818-35.7327 125.769-8.9332 26.95-26.7995 89.834-35.7327 116.785-8.9332 26.95 17.8663 62.884 35.7327 98.818 17.8664 35.933 62.5319 134.751 80.3989 170.685 17.866 35.934 71.465 17.967 116.131 53.901s107.198 80.851 151.864 107.801c44.666 26.951 62.532 26.951 107.198 0 44.666-26.95 107.198-71.867 151.864-107.801s98.265-17.967 116.131-53.901c17.867-35.934 62.533-134.752 80.399-170.685 17.866-35.934 44.666-71.868 35.733-98.818-8.934-26.951-26.8-89.835-35.733-116.785-8.933-26.951 0-98.818-35.733-125.769-35.732-26.95-77.21-61.265-107.198-89.834-29.987-28.569-17.866-44.917-53.599-71.868-35.733-26.9501-116.131-62.8839-151.864-80.8508s-71.465-17.9669-107.198 0z" fill="#fff"/><path d="m284.731 190.341 167.193 114.125c3.774 2.513 8.181 3.889 12.705 3.966 4.53-.033 8.95-1.413 12.705-3.966l167.32-114.509c6.502-4.655 10.087-12.415 9.435-20.421-.652-8.007-5.444-15.075-12.611-18.602l-167.193-82.7789c-6.343-3.0774-13.732-3.0774-20.074 0l-166.685 82.7789c-7.297 3.546-12.152 10.751-12.729 18.888-.577 8.138 3.212 15.965 9.934 20.519zm236.688 149.949c.013 7.568 3.718 14.647 9.91 18.935l134.034 91.608c8.58 5.916 20.061 5.176 27.823-1.792l112.437-100.563c5.011-4.477 7.793-10.96 7.597-17.703s-3.351-13.052-8.613-17.225l-107.355-85.85c-7.803-6.199-18.689-6.613-26.934-1.024l-138.989 95.062c-6.083 4.211-9.773 11.12-9.91 18.552zm-333.371 124.616c5.417 4.866 8.202 12.044 7.496 19.32-.704 7.318-4.93 13.821-11.308 17.4l-80.039 47.979c-8.1137 4.849-18.358 4.15-25.7475-1.758-7.3894-5.908-10.3891-15.797-7.539-24.855l29.6015-93.142c2.323-7.38 8.209-13.067 15.627-15.097 7.413-2.158 15.407-.266 21.09 4.989zm434.119 9.724-144.706-99.028c-7.691-5.174-17.719-5.174-25.41 0l-144.706 99.028c-5.756 3.984-9.402 10.386-9.91 17.4-.375 7.064 2.424 13.923 7.623 18.68l144.579 129.35c4.17 3.719 9.549 5.768 15.119 5.758 5.567-.002 10.943-2.049 15.119-5.758l144.579-129.35c5.214-4.737 7.978-11.624 7.496-18.68-.404-7.014-4.018-13.442-9.783-17.4zm-385.968-25.589-112.31-100.563c-5.053-4.591-7.842-11.19-7.623-18.04.122-6.752 3.247-13.091 8.512-17.272l107.355-86.362c7.858-6.181 18.765-6.594 27.061-1.023l138.862 95.061c6.445 4.227 10.332 11.447 10.332 19.192s-3.887 14.965-10.332 19.191l-133.907 91.607c-8.633 5.89-20.129 5.154-27.95-1.791zm576.666 144.448-114.343-68.449c-8.491-5.118-19.3-4.081-26.679 2.558l-139.752 124.745c-5.895 5.265-8.664 13.227-7.318 21.045s6.614 14.378 13.924 17.338l193.874 78.557c2.659 1.104 5.509 1.67 8.385 1.663 8.998.028 17.166-5.288 20.836-13.562l60.093-134.596c4.891-10.651.996-23.302-9.02-29.299zm15.88-163.639 29.602 93.142h-.254c2.189 6.968.946 14.568-3.348 20.46-4.293 5.891-11.12 9.365-18.377 9.351-4.071.014-8.068-1.092-11.561-3.198l-80.167-47.979c-6.246-3.654-10.325-10.151-10.926-17.4-.748-7.282 2.044-14.478 7.496-19.32l50.819-45.291c5.741-5.145 13.674-7.022 21.09-4.99 7.413 2.118 13.28 7.834 15.626 15.225zm-424.082 243.475c1.366-7.786-1.375-15.728-7.242-20.982l-139.751-124.745c-7.38-6.639-18.189-7.676-26.68-2.558l-114.343 68.449c-9.9 6.023-13.817 18.514-9.147 29.171l60.22 134.596c4.989 11.223 17.888 16.475 29.221 11.899l193.747-78.557c7.312-2.934 12.599-9.467 13.975-17.273zm68.605 38.383 155.506 62.948c7.603 3.254 12.856 10.405 13.721 18.68.984 8.377-2.737 16.611-9.656 21.366l-155.632 108.112c-3.73 2.62-8.158 4.047-12.705 4.094-4.544-.071-8.965-1.495-12.705-4.094l-155.505-108.112c-6.945-4.743-10.711-12.968-9.783-21.366 1.038-8.361 6.48-15.505 14.229-18.68l155.506-62.948c5.468-2.18 11.556-2.18 17.024 0z" fill="#bf4722"/></g></svg>

<svg width="929" height="1000" viewBox="0 0 929 1000" fill="none" xmlns="http://www.w3.org/2000/svg">
<path fill-rule="evenodd" clip-rule="evenodd" d="M410.901 34.4752C375.168 52.4421 299.843 87.4218 259.037 115.326C218.231 143.231 223.304 169.227 205.438 187.194C187.572 205.161 133.973 250.078 98.2398 277.028C62.5071 303.979 71.4403 375.846 62.5071 402.797C53.5739 429.747 35.7076 492.631 26.7744 519.582C17.8412 546.532 44.6407 582.466 62.5071 618.4C80.3735 654.333 125.039 753.151 142.906 789.085C160.772 825.019 214.371 807.052 259.037 842.986C303.703 878.92 366.235 923.837 410.901 950.787C455.567 977.738 473.433 977.738 518.099 950.787C562.765 923.837 625.297 878.92 669.963 842.986C714.629 807.052 768.228 825.019 786.094 789.085C803.961 753.151 848.627 654.333 866.493 618.4C884.359 582.466 911.159 546.532 902.226 519.582C893.292 492.631 875.426 429.747 866.493 402.797C857.56 375.846 866.493 303.979 830.76 277.028C795.028 250.078 753.55 215.763 723.562 187.194C693.575 158.625 705.696 142.277 669.963 115.326C634.23 88.3759 553.832 52.4421 518.099 34.4752C482.366 16.5083 446.634 16.5083 410.901 34.4752Z" fill="white"/>
<path fill-rule="evenodd" clip-rule="evenodd" d="M284.731 190.341L451.924 304.466C455.698 306.979 460.105 308.355 464.629 308.432C469.159 308.399 473.579 307.019 477.334 304.466L644.654 189.957C651.156 185.302 654.741 177.542 654.089 169.536C653.437 161.529 648.645 154.461 641.478 150.934L474.285 68.1551C467.942 65.0777 460.553 65.0777 454.211 68.1551L287.526 150.934C280.229 154.48 275.374 161.685 274.797 169.822C274.22 177.96 278.009 185.787 284.731 190.341ZM521.419 340.29C521.432 347.858 525.137 354.937 531.329 359.225L665.363 450.833C673.943 456.749 685.424 456.009 693.186 449.041L805.623 348.478C810.634 344.001 813.416 337.518 813.22 330.775C813.024 324.032 809.869 317.723 804.607 313.55L697.252 227.7C689.449 221.501 678.563 221.087 670.318 226.676L531.329 321.738C525.246 325.949 521.556 332.858 521.419 340.29ZM188.048 464.906C193.465 469.772 196.25 476.95 195.544 484.226C194.84 491.544 190.614 498.047 184.236 501.626L104.197 549.605C96.0833 554.454 85.839 553.755 78.4495 547.847C71.0601 541.939 68.0604 532.05 70.9105 522.992L100.512 429.85C102.835 422.47 108.721 416.783 116.139 414.753C123.552 412.595 131.546 414.487 137.229 419.742L188.048 464.906ZM622.167 474.63L477.461 375.602C469.77 370.428 459.742 370.428 452.051 375.602L307.345 474.63C301.589 478.614 297.943 485.016 297.435 492.03C297.06 499.094 299.859 505.953 305.058 510.71L449.637 640.06C453.807 643.779 459.186 645.828 464.756 645.818C470.323 645.816 475.699 643.769 479.875 640.06L624.454 510.71C629.668 505.973 632.432 499.086 631.95 492.03C631.546 485.016 627.932 478.588 622.167 474.63ZM236.199 449.041L123.889 348.478C118.836 343.887 116.047 337.288 116.266 330.438C116.388 323.686 119.513 317.347 124.778 313.166L232.133 226.804C239.991 220.623 250.898 220.21 259.194 225.781L398.056 320.842C404.501 325.069 408.388 332.289 408.388 340.034C408.388 347.779 404.501 354.999 398.056 359.225L264.149 450.832C255.516 456.722 244.02 455.986 236.199 449.041ZM812.865 593.489L698.522 525.04C690.031 519.922 679.222 520.959 671.843 527.598L532.091 652.343C526.196 657.608 523.427 665.57 524.773 673.388C526.119 681.206 531.387 687.766 538.697 690.726L732.571 769.283C735.23 770.387 738.08 770.953 740.956 770.946C749.954 770.974 758.122 765.658 761.792 757.384L821.885 622.788C826.776 612.137 822.881 599.486 812.865 593.489ZM828.745 429.85L858.347 522.992H858.093C860.282 529.96 859.039 537.56 854.745 543.452C850.452 549.343 843.625 552.817 836.368 552.803C832.297 552.817 828.3 551.711 824.807 549.605L744.64 501.626C738.394 497.972 734.315 491.475 733.714 484.226C732.966 476.944 735.758 469.748 741.21 464.906L792.029 419.615C797.77 414.47 805.703 412.593 813.119 414.625C820.532 416.743 826.399 422.459 828.745 429.85ZM404.663 673.325C406.029 665.539 403.288 657.597 397.421 652.343L257.67 527.598C250.29 520.959 239.481 519.922 230.99 525.04L116.647 593.489C106.747 599.512 102.83 612.003 107.5 622.66L167.72 757.256C172.709 768.479 185.608 773.731 196.941 769.155L390.688 690.598C398 687.664 403.287 681.131 404.663 673.325ZM473.268 711.708L628.774 774.656C636.377 777.91 641.63 785.061 642.495 793.336C643.479 801.713 639.758 809.947 632.839 814.702L477.207 922.814C473.477 925.434 469.049 926.861 464.502 926.908C459.958 926.837 455.537 925.413 451.797 922.814L296.292 814.702C289.347 809.959 285.581 801.734 286.509 793.336C287.547 784.975 292.989 777.831 300.738 774.656L456.244 711.708C461.712 709.528 467.8 709.528 473.268 711.708Z" fill="#BF4722"/>
</svg>
